X: 2153
T: Aughamore, The
R: reel
M: 4/4
K: Dmajor
(3ABA FA DAFA|ABde fedc|BEED ~E3f|gfed cAAc|
d~f3 c~e3|BcdB AGFA|EFGA B/c/d ed|cAGE EDD2:|
f~a3 g~e3|d2 ed cAA2|f~a3 bged|B/c/d eg fddf|
afdf gece|d2 ed cAGE|FGAB cded|cAGE EDD2:|

